X: 1
T: Peeler and the Goat, The
C: J-4
M: 6/8
Z: Transcribed to abc by Mary Lou Knack
R: jig
P: A Dorian
K: ADor
A/B/| "Am"c2A "G"BAG| "Am"A2B c2d| e=fe "G"d2c| "Em"B2G GAB|
      "Am"c2A "G"BAG| "Am"A2B c2d| efg "Em"fed| "Am"e2A A2 :|
|:\
f| "Am"gfe e2d| e2f "G"g2a| "Am"gfe "G"d2g| "Em"B2G GAB|
   "Am"cBA "G"BAG| "Am"A2B c2d| efg "Em"fed| "Am"e2 A A2 :|
%%text 9/1/98
